X:697
T: ES WOLLT EIN JUNGFRAU FRUEH AUFSTEHN
N: E2125
O: Europa, Mitteleuropa, Deutschland, Hessen, Unter - Taunus, Hennethal;
R: geistlich, Heiligen - Lied
M: 4/4
L: 1/8
K: G
D2 | G3ABAGA | d3Bd2
Bd | c2B2A2G2 | A4z2
AB | c2B2A2G2 | F2GBA2
ce | d2B2d2dc | B4z2

@@@ Tune index: 5381
